img/helm_icon-icons.com_59944 1.svg

<svg width="800" height="800" fill="none" xmlns="http://www.w3.org/2000/svg"><path d="M773.64 384.54h-3.484c-8.336-10.012-24.864-16.331-45.983-16.331-8.007 0-15.339.915-21.826 2.588-6.11-61.93-30.904-118.446-68.641-163.843 6.318-3.571 12.667-8.36 18.585-14.282 8.402-8.402 14.943-18.009 18.393-27.05 2.604-6.812 3.193-12.497 2.728-17.151l1.724-1.735c6.041-6.034 6.041-15.826 0-21.861-6.038-6.039-15.822-6.039-21.86 0l-1.847 1.859c-.932-.091-1.742-.289-2.744-.289-12.56 0-28.019 7.945-41.358 21.266-6.124 6.125-10.869 12.449-14.337 18.678-45.586-37.55-102.268-62.047-164.296-67.853 1.967-6.91 3.105-14.796 3.105-23.53 0-21.12-6.314-37.642-16.341-45.983v-2.662c0-8.536-6.92-15.459-15.459-15.459-8.523 0-15.459 6.923-15.459 15.46v2.661c-10.007 8.342-16.322 24.863-16.322 45.982 0 8.748 1.138 16.642 3.123 23.557-62.012 5.875-118.658 30.433-164.192 68.025-3.502-6.293-8.282-12.686-14.459-18.875-13.337-13.321-28.797-21.275-41.359-21.275-1 0-1.811.199-2.744.29l-1.846-1.855c-6.038-6.039-15.822-6.039-21.861 0-6.039 6.035-6.039 15.827 0 21.861l1.743 1.74c-.465 4.654.121 10.339 2.709 17.142 3.451 9.045 9.99 18.657 18.393 27.063 5.988 5.997 12.423 10.831 18.824 14.417-37.752 45.456-62.512 102.055-68.552 164.063-6.78-1.881-14.493-2.946-23-2.946-21.119 0-37.632 6.319-45.97 16.331h-2.666c-8.532 0-15.459 6.923-15.459 15.46s6.927 15.459 15.46 15.459h2.665c8.338 10.011 24.851 16.331 45.97 16.331 8.454 0 16.133-1.052 22.88-2.911 5.728 62.051 30.143 118.762 67.636 164.382-5.866 3.486-11.716 7.999-17.202 13.484-14.942 14.938-22.154 31.087-20.964 44.067l-2.468 2.463c-6.039 6.034-6.039 15.826 0 21.86a15.393 15.393 0 0 0 10.922 4.53 15.4 15.4 0 0 0 10.938-4.53l2.434-2.441c.932.092 1.742.289 2.743.289 12.562 0 28.021-7.947 41.358-21.275 5.573-5.585 10.077-11.34 13.458-17.033 45.448 37.65 101.991 62.313 163.916 68.323-1.57 6.328-2.432 13.435-2.432 21.176 0 21.119 6.315 37.64 16.322 45.975v3.488c0 8.536 6.937 15.46 15.459 15.46 8.54 0 15.459-6.924 15.459-15.46v-3.488c10.026-8.335 16.341-24.855 16.341-45.975 0-7.73-.863-14.825-2.435-21.148 62.013-5.941 118.643-30.576 164.143-68.234a88.393 88.393 0 0 0 13.251 16.913c13.32 13.321 28.779 21.276 41.342 21.276 1.002 0 1.828-.199 2.744-.286l2.45 2.441a15.387 15.387 0 0 0 10.922 4.53c3.952 0 7.919-1.509 10.938-4.53 6.04-6.034 6.04-15.826 0-21.86l-2.467-2.466c1.173-12.978-6.039-29.126-20.964-44.061-5.419-5.414-11.181-9.884-16.962-13.35 37.479-45.562 61.909-102.189 67.705-164.159 6.454 1.648 13.754 2.55 21.708 2.55 21.119 0 37.647-6.32 45.983-16.331h3.484c8.54 0 15.459-6.923 15.459-15.459.001-8.54-6.918-15.463-15.458-15.463ZM603.822 581.955l-20.395-20.389c34.819-39.483 57.061-90.276 60.406-146.106h28.679c-3.399 63.732-28.796 121.699-68.69 166.495ZM218.17 603.7l21.085-21.079c39.202 34.884 89.723 57.283 145.282 60.983v29.456c-63.737-3.624-121.678-29.235-166.367-69.36Zm-90.309-188.24h30.04c3.313 55.399 25.243 105.83 59.614 145.183l-21.136 21.128c-39.789-44.77-65.136-102.664-68.518-166.311Zm69.26-196.48 21.084 21.09c-34.439 39.106-56.542 89.291-60.183 144.47h-30.04c3.744-63.414 29.246-121.052 69.139-165.56Zm384.029-21.977-20.395 20.395c-39.374-34.375-89.844-56.318-145.3-59.613V128.53c63.413 3.514 121.075 28.801 165.695 68.473ZM400.186 454.55c-29.642 0-53.746-24.108-53.746-53.743 0-29.634 24.104-53.743 53.746-53.743 29.625 0 53.749 24.109 53.749 53.743s-24.123 53.743-53.749 53.743Zm47.329-123.912c-9.49-6.419-20.359-10.9-32.059-13.04V188.785c46.933 3.202 89.705 21.681 123.387 50.517l-91.328 91.336Zm-62.978-12.984c-11.63 2.183-22.448 6.708-31.886 13.14l-90.689-90.689c33.422-28.936 75.902-47.618 122.575-51.186v128.735Zm-53.833 34.909c-6.574 9.447-11.285 20.274-13.579 31.977H189.011c3.554-46.664 22.207-89.14 51.107-122.566l90.586 90.589Zm-13.821 62.897c2.087 11.919 6.608 23.018 13.13 32.672l-90.603 90.606c-28.814-33.668-47.294-76.398-50.503-123.278h127.976Zm34.853 54.676a84.203 84.203 0 0 0 32.801 13.824v128.643c-47.052-3.592-89.843-22.557-123.386-51.887l90.585-90.58Zm63.72 13.88a84.19 84.19 0 0 0 32.975-13.729l91.223 91.232c-33.801 29.236-76.886 47.991-124.197 51.219V484.016h-.001Zm54.749-35.682c6.608-9.706 11.181-20.869 13.285-32.874h129.356c-3.263 47.311-22.05 90.396-51.314 124.2l-91.327-91.326Zm13.045-63.794c-2.314-11.788-7.075-22.685-13.735-32.179l91.31-91.314c29.368 33.569 48.33 76.398 51.901 123.494H483.25v-.001Zm-98.713-226.622c-55.18 3.679-105.372 25.808-144.471 60.282l-21.033-21.034c44.568-39.688 102.163-65.01 165.504-68.611v29.363Zm30.919 485.817c55.837-3.313 106.615-25.528 146.111-60.313l20.446 20.441c-44.741 40.107-102.751 65.679-166.558 69.221v-29.349h.001ZM643.732 384.54c-3.694-55.61-26.088-106.157-60.994-145.394l20.343-20.355c39.994 44.538 65.55 102.25 69.311 165.749h-28.66Z" fill="#FBD42C"/></svg>

<svg width="800" height="800" viewBox="0 0 800 800" fill="none" xmlns="http://www.w3.org/2000/svg">
<path d="M773.64 384.54H770.156C761.82 374.528 745.292 368.209 724.173 368.209C716.166 368.209 708.834 369.124 702.347 370.797C696.237 308.867 671.443 252.351 633.706 206.954C640.024 203.383 646.373 198.594 652.291 192.672C660.693 184.27 667.234 174.663 670.684 165.622C673.288 158.81 673.877 153.125 673.412 148.471L675.136 146.736C681.177 140.702 681.177 130.91 675.136 124.875C669.098 118.836 659.314 118.836 653.276 124.875L651.429 126.734C650.497 126.643 649.687 126.445 648.685 126.445C636.125 126.445 620.666 134.39 607.327 147.711C601.203 153.836 596.458 160.16 592.99 166.389C547.404 128.839 490.722 104.342 428.694 98.5363C430.661 91.6253 431.799 83.7403 431.799 75.0053C431.799 53.8863 425.485 37.3643 415.458 29.0233V26.3613C415.458 17.8253 408.538 10.9023 399.999 10.9023C391.476 10.9023 384.54 17.8253 384.54 26.3613V29.0233C374.533 37.3653 368.218 53.8863 368.218 75.0053C368.218 83.7533 369.356 91.6473 371.341 98.5623C309.329 104.437 252.683 128.995 207.149 166.587C203.647 160.294 198.867 153.901 192.69 147.712C179.353 134.391 163.893 126.437 151.331 126.437C150.331 126.437 149.52 126.636 148.587 126.727L146.741 124.872C140.703 118.833 130.919 118.833 124.88 124.872C118.841 130.907 118.841 140.699 124.88 146.733L126.623 148.473C126.158 153.127 126.744 158.812 129.332 165.615C132.783 174.66 139.322 184.272 147.725 192.678C153.713 198.675 160.148 203.509 166.549 207.095C128.797 252.551 104.037 309.15 97.9973 371.158C91.2173 369.277 83.5043 368.212 74.9973 368.212C53.8783 368.212 37.3653 374.531 29.0273 384.543H26.3613C17.8293 384.543 10.9023 391.466 10.9023 400.003C10.9023 408.54 17.8293 415.462 26.3613 415.462H29.0273C37.3653 425.473 53.8783 431.793 74.9973 431.793C83.4513 431.793 91.1303 430.741 97.8763 428.882C103.605 490.933 128.02 547.644 165.513 593.264C159.647 596.75 153.797 601.263 148.311 606.748C133.369 621.686 126.157 637.835 127.347 650.815L124.879 653.278C118.84 659.312 118.84 669.104 124.879 675.138C127.899 678.159 131.85 679.668 135.801 679.668C139.769 679.668 143.72 678.159 146.739 675.138L149.173 672.697C150.105 672.789 150.915 672.986 151.916 672.986C164.478 672.986 179.937 665.039 193.274 651.711C198.847 646.126 203.351 640.371 206.732 634.678C252.18 672.328 308.723 696.991 370.648 703.001C369.078 709.329 368.216 716.436 368.216 724.177C368.216 745.296 374.531 761.817 384.538 770.152V773.64C384.538 782.176 391.475 789.1 399.997 789.1C408.537 789.1 415.456 782.176 415.456 773.64V770.152C425.482 761.817 431.797 745.297 431.797 724.177C431.797 716.447 430.934 709.352 429.362 703.029C491.375 697.088 548.005 672.453 593.505 634.795C597.008 640.615 601.442 646.408 606.756 651.708C620.076 665.029 635.535 672.984 648.098 672.984C649.1 672.984 649.926 672.785 650.842 672.698L653.292 675.139C656.311 678.16 660.26 679.669 664.214 679.669C668.166 679.669 672.133 678.16 675.152 675.139C681.192 669.105 681.192 659.313 675.152 653.279L672.685 650.813C673.858 637.835 666.646 621.687 651.721 606.752C646.302 601.338 640.54 596.868 634.759 593.402C672.238 547.84 696.668 491.213 702.464 429.243C708.918 430.891 716.218 431.793 724.172 431.793C745.291 431.793 761.819 425.473 770.155 415.462H773.639C782.179 415.462 789.098 408.539 789.098 400.003C789.099 391.463 782.18 384.54 773.64 384.54ZM603.822 581.955L583.427 561.566C618.246 522.083 640.488 471.29 643.833 415.46H672.512C669.113 479.192 643.716 537.159 603.822 581.955ZM218.17 603.7L239.255 582.621C278.457 617.505 328.978 639.904 384.537 643.604V673.06C320.8 669.436 262.859 643.825 218.17 603.7ZM127.861 415.46H157.901C161.214 470.859 183.144 521.29 217.515 560.643L196.379 581.771C156.59 537.001 131.243 479.107 127.861 415.46ZM197.121 218.98L218.205 240.07C183.766 279.176 161.663 329.361 158.022 384.54H127.982C131.726 321.126 157.228 263.488 197.121 218.98ZM581.15 197.003L560.755 217.398C521.381 183.023 470.911 161.08 415.455 157.785V128.53C478.868 132.044 536.53 157.331 581.15 197.003ZM400.186 454.55C370.544 454.55 346.44 430.442 346.44 400.807C346.44 371.173 370.544 347.064 400.186 347.064C429.811 347.064 453.935 371.173 453.935 400.807C453.935 430.441 429.812 454.55 400.186 454.55ZM447.515 330.638C438.025 324.219 427.156 319.738 415.456 317.598V188.785C462.389 191.987 505.161 210.466 538.843 239.302L447.515 330.638ZM384.537 317.654C372.907 319.837 362.089 324.362 352.651 330.794L261.962 240.105C295.384 211.169 337.864 192.487 384.537 188.919V317.654V317.654ZM330.704 352.563C324.13 362.01 319.419 372.837 317.125 384.54H189.011C192.565 337.876 211.218 295.4 240.118 261.974L330.704 352.563ZM316.883 415.46C318.97 427.379 323.491 438.478 330.013 448.132L239.41 538.738C210.596 505.07 192.116 462.34 188.907 415.46H316.883V415.46ZM351.736 470.136C361.399 476.908 372.528 481.704 384.537 483.96V612.603C337.485 609.011 294.694 590.046 261.151 560.716L351.736 470.136ZM415.456 484.016C427.535 481.804 438.716 477.049 448.431 470.287L539.654 561.519C505.853 590.755 462.768 609.51 415.457 612.738V484.016H415.456ZM470.205 448.334C476.813 438.628 481.386 427.465 483.49 415.46H612.846C609.583 462.771 590.796 505.856 561.532 539.66L470.205 448.334ZM483.25 384.54C480.936 372.752 476.175 361.855 469.515 352.361L560.825 261.047C590.193 294.616 609.155 337.445 612.726 384.541H483.25V384.54ZM384.537 157.918C329.357 161.597 279.165 183.726 240.066 218.2L219.033 197.166C263.601 157.478 321.196 132.156 384.537 128.555V157.918ZM415.456 643.735C471.293 640.422 522.071 618.207 561.567 583.422L582.013 603.863C537.272 643.97 479.262 669.542 415.455 673.084V643.735H415.456ZM643.732 384.54C640.038 328.93 617.644 278.383 582.738 239.146L603.081 218.791C643.075 263.329 668.631 321.041 672.392 384.54H643.732Z" fill="#FBD42C"/>
</svg>
